app/themes/uggwc_pro/assets/images/thema/Management.svg

<svg width="16" height="16" viewBox="0 0 16 16" fill="none" xmlns="http://www.w3.org/2000/svg">
<path d="M12.2005 6.49987H8.40055V7.81248C8.40055 8.74303 7.59306 9.50013 6.60056 9.50013C5.60806 9.50013 4.80056 8.74303 4.80056 7.81248V4.96224L3.17806 5.87638C2.69557 6.14594 2.40057 6.63582 2.40057 7.16087V8.26955L0.400569 9.35246C0.0180702 9.55873 -0.11443 10.0181 0.10807 10.3768L2.10807 13.6255C2.32807 13.9841 2.81807 14.106 3.20056 13.8997L5.78556 12.5004H9.20055C10.0831 12.5004 10.8005 11.8277 10.8005 11.0003H11.2005C11.643 11.0003 12.0005 10.6651 12.0005 10.2502V8.75006H12.2005C12.533 8.75006 12.8005 8.49926 12.8005 8.18752V7.06242C12.8005 6.75068 12.533 6.49987 12.2005 6.49987ZM15.893 5.62324L13.893 2.37452C13.673 2.0159 13.183 1.89402 12.8005 2.10028L10.2156 3.49962H7.66056C7.36056 3.49962 7.06806 3.57931 6.81306 3.72698L5.97556 4.21687C5.74056 4.35282 5.60056 4.59424 5.60056 4.85208V7.81248C5.60056 8.3305 6.04806 8.75006 6.60056 8.75006C7.15306 8.75006 7.60056 8.3305 7.60056 7.81248V5.74981H12.2005C12.973 5.74981 13.6005 6.33814 13.6005 7.06242V7.73045L15.6005 6.64754C15.983 6.43893 16.113 5.98186 15.893 5.62324Z" fill="#6E6CFF"/>
</svg>

<svg width="16" height="16" fill="none" xmlns="http://www.w3.org/2000/svg"><path d="M12.2 6.5H8.4v1.312c0 .931-.807 1.688-1.8 1.688-.992 0-1.8-.757-1.8-1.688v-2.85l-1.622.914a1.48 1.48 0 0 0-.777 1.285V8.27l-2 1.082c-.383.207-.515.666-.293 1.025l2 3.248c.22.36.71.481 1.093.275l2.585-1.4H9.2c.882 0 1.6-.672 1.6-1.5h.4c.442 0 .8-.335.8-.75v-1.5h.2c.332 0 .6-.25.6-.562V7.062c0-.311-.268-.562-.6-.562zm3.693-.877-2-3.248c-.22-.36-.71-.481-1.093-.275l-2.584 1.4H7.66c-.3 0-.593.08-.848.227l-.837.49a.736.736 0 0 0-.375.635v2.96c0 .519.447.938 1 .938.552 0 1-.42 1-.938V5.75h4.6c.772 0 1.4.588 1.4 1.312v.668l2-1.082c.382-.21.512-.666.292-1.025z" fill="#6E6CFF"/></svg>
